images/icons/dairy_icon.svg

<svg viewBox="0 0 32 32" xmlns="http://www.w3.org/2000/svg"><path d="m15.8 13.39a1 1 0 0 0 -.85-.47h-7.95a1 1 0 0 0 -1 1v15.08a1 1 0 0 0 1 1h8a1 1 0 0 0 1-1v-15a1.37 1.37 0 0 0 -.2-.61zm-3.8 12.61h-2a1 1 0 0 1 0-2h2a1 1 0 1 1 0 2zm0-3.5h-2a1 1 0 0 1 0-2h2a1 1 0 1 1 0 2zm0-3.5h-2a1 1 0 0 1 0-2h2a1 1 0 0 1 0 2z"/><path d="m25 12.92h-8.32a2.3 2.3 0 0 1 .32 1.08v15a2 2 0 0 1 -.28 1h8.28a1 1 0 0 0 1-1v-15.08a1 1 0 0 0 -1-1z"/><path d="m15 11.92-3.13-5.42a1 1 0 0 0 -1.73 0l-3.14 5.42z"/><path d="m16.11 11.92h8.89l-3.13-5.42a1 1 0 0 0 -.87-.5h-8.26z"/><path d="m11 5h.12 9.88a2 2 0 0 1 1 .27v-2.27a1 1 0 0 0 -1-1h-10a1 1 0 0 0 -1 1v2.27a2 2 0 0 1 1-.27z"/></svg>

<?xml version="1.0" ?><svg viewBox="0 0 32 32" xmlns="http://www.w3.org/2000/svg"><title/><g id="milk"><path d="M15.8,13.39a1,1,0,0,0-.85-.47H7a1,1,0,0,0-1,1V29a1,1,0,0,0,1,1h8a1,1,0,0,0,1-1V14A1.37,1.37,0,0,0,15.8,13.39ZM12,26H10a1,1,0,0,1,0-2h2a1,1,0,1,1,0,2Zm0-3.5H10a1,1,0,0,1,0-2h2a1,1,0,1,1,0,2ZM12,19H10a1,1,0,0,1,0-2h2a1,1,0,0,1,0,2Z"/><path d="M25,12.92H16.68A2.3,2.3,0,0,1,17,14V29a2,2,0,0,1-.28,1H25a1,1,0,0,0,1-1V13.92A1,1,0,0,0,25,12.92Z"/><path d="M15,11.92h0L11.87,6.5a1,1,0,0,0-1.73,0L7,11.92Z"/><path d="M16.11,11.92H25L21.87,6.5A1,1,0,0,0,21,6H12.74Z"/><path d="M11,5l.12,0V5H21a2,2,0,0,1,1,.27V3a1,1,0,0,0-1-1H11a1,1,0,0,0-1,1V5.27A2,2,0,0,1,11,5Z"/></g></svg>
